src/assets/svg/mail.svg

<svg width="38" height="38" viewBox="0 0 38 38" fill="none" xmlns="http://www.w3.org/2000/svg">
<circle cx="19" cy="19" r="19" fill="#4AA200"/>
<path d="M9.82764 16.3502C9.82764 14.0671 9.82764 12.9256 10.272 12.0535C10.6628 11.2864 11.2864 10.6628 12.0535 10.272C12.9256 9.82764 14.0671 9.82764 16.3502 9.82764H21.6499C23.933 9.82764 25.0746 9.82764 25.9466 10.272C26.7137 10.6628 27.3373 11.2864 27.7281 12.0535C28.1725 12.9256 28.1725 14.0671 28.1725 16.3502V21.6499C28.1725 23.933 28.1725 25.0746 27.7281 25.9466C27.3373 26.7137 26.7137 27.3373 25.9466 27.7281C25.0746 28.1725 23.933 28.1725 21.6499 28.1725H16.3502C14.0671 28.1725 12.9256 28.1725 12.0535 27.7281C11.2864 27.3373 10.6628 26.7137 10.272 25.9466C9.82764 25.0746 9.82764 23.933 9.82764 21.6499V16.3502Z" fill="white"/>
<path d="M22.9646 14.1011L19.0421 17.1623L15.0298 14.1011V14.1019L15.0346 14.106V18.3926L18.9968 21.52L22.9646 18.5134V14.1011Z" fill="#EA4335"/>
<path d="M23.9945 13.3567L22.9644 14.1013V18.5136L26.2058 16.0249V14.5257C26.2058 14.5257 25.8124 12.3845 23.9945 13.3567Z" fill="#FBBC05"/>
<path d="M22.9644 18.5136V24.2365H25.4488C25.4488 24.2365 26.1558 24.1637 26.2067 23.3578V16.0249L22.9644 18.5136Z" fill="#34A853"/>
<path d="M15.0348 24.2414V18.3928L15.0298 18.3887L15.0348 24.2414Z" fill="#C5221F"/>
<path d="M15.0296 14.1016L14.0051 13.3611C12.1872 12.389 11.793 14.5294 11.793 14.5294V16.0286L15.0296 18.3882V14.1016Z" fill="#C5221F"/>
<path d="M15.0298 14.1021V18.3886L15.0348 18.3928V14.1062L15.0298 14.1021Z" fill="#C5221F"/>
<path d="M11.793 16.0298V23.3627C11.8431 24.1694 12.5508 24.2414 12.5508 24.2414H15.0353L15.0296 18.3886L11.793 16.0298Z" fill="#4285F4"/>
</svg>

<svg width="38" height="38" fill="none" xmlns="http://www.w3.org/2000/svg"><circle cx="19" cy="19" r="19" fill="#4AA200"/><path d="M9.828 16.35c0-2.283 0-3.424.444-4.297a4.076 4.076 0 0 1 1.781-1.781c.873-.444 2.014-.444 4.297-.444h5.3c2.283 0 3.425 0 4.297.444a4.076 4.076 0 0 1 1.781 1.781c.444.873.444 2.014.444 4.297v5.3c0 2.283 0 3.425-.444 4.297a4.076 4.076 0 0 1-1.781 1.781c-.872.444-2.014.444-4.297.444h-5.3c-2.283 0-3.424 0-4.297-.444a4.076 4.076 0 0 1-1.781-1.781c-.444-.872-.444-2.014-.444-4.297v-5.3z" fill="#fff"/><path d="m22.965 14.101-3.923 3.061-4.012-3.06.005.004v4.287l3.962 3.127 3.968-3.007v-4.412z" fill="#EA4335"/><path d="m23.994 13.357-1.03.744v4.413l3.242-2.49v-1.498s-.394-2.142-2.212-1.17z" fill="#FBBC05"/><path d="M22.964 18.514v5.723h2.485s.707-.073.758-.88v-7.332l-3.243 2.489z" fill="#34A853"/><path d="M15.035 24.241v-5.848l-.005-.004.005 5.852zM15.03 14.102l-1.025-.74c-1.818-.973-2.212 1.167-2.212 1.167v1.5l3.237 2.36v-4.287z" fill="#C5221F"/><path d="M15.03 14.102v4.287l.005.004v-4.287l-.005-.004z" fill="#C5221F"/><path d="M11.793 16.03v7.333c.05.806.758.878.758.878h2.484l-.005-5.852-3.237-2.36z" fill="#4285F4"/></svg>
